pages/home/customize-your-output.svg

<?xml version="1.0" encoding="UTF-8" standalone="no"?>
<svg width="78px" height="88px" viewBox="0 0 78 88" version="1.1" xmlns="http://www.w3.org/2000/svg" xmlns:xlink="http://www.w3.org/1999/xlink">
    <!-- Generator: Sketch 3.8.1 (29687) - http://www.bohemiancoding.com/sketch -->
    <title>Group 49</title>
    <desc>Created with Sketch.</desc>
    <defs></defs>
    <g id="Desktop-design" stroke="none" stroke-width="1" fill="none" fill-rule="evenodd">
        <g id="Home-page-v2" transform="translate(-1061.000000, -3635.000000)">
            <g id="Group-13" transform="translate(0.000000, 2944.000000)">
                <g id="Group-37">
                    <g id="Group-34" transform="translate(461.000000, 691.000000)">
                        <g id="Group-49" transform="translate(600.000000, 0.000000)">
                            <path d="M35.5238347,0.829552857 C37.4344704,-0.277494758 40.5369227,-0.275540049 42.4458143,0.829552857 L74.5375323,19.4080459 C76.4498004,20.5150935 78,23.2113212 78,25.421507 L78,62.578493 C78,64.7925883 76.4464239,67.4868612 74.5375323,68.5919541 L42.4458143,87.1704471 C40.5335462,88.2774948 37.4310968,88.27554 35.5238347,87.1704471 L3.45951196,68.5919541 C1.54887626,67.4849065 2.12051611e-14,64.7886788 1.99889639e-14,62.578493 L-4.57382396e-16,25.421507 C-1.67573088e-15,23.2074117 1.55224986,20.5131388 3.45951196,19.4080459 L35.5238347,0.829552857 Z" id="Polygon-16-Copy-2" fill="#0070D3"></path>
                            <path d="M47.5090909,57 L30.4909091,57 C28.0090909,57 26,54.9909091 26,52.5090909 L26,35.4909091 C26,33.0090909 28.0090909,31 30.4909091,31 L39,31 C39.7090909,31 40.1818182,31.4727273 40.1818182,32.1818182 C40.1818182,32.8909091 39.7090909,33.3636364 39,33.3636364 L30.4909091,33.3636364 C29.3090909,33.3636364 28.3636364,34.3090909 28.3636364,35.4909091 L28.3636364,52.3909091 C28.3636364,53.5727273 29.3090909,54.5181818 30.4909091,54.5181818 L47.3909091,54.5181818 C48.5727273,54.5181818 49.5181818,53.5727273 49.5181818,52.3909091 L49.5181818,44 C49.5181818,43.2909091 49.9909091,42.8181818 50.7,42.8181818 C51.4090909,42.8181818 51.8818182,43.2909091 51.8818182,44 L51.8818182,52.5090909 C52,54.9909091 49.9909091,57 47.5090909,57 Z M35.2057416,48.7272727 C34.9258373,48.7272727 34.7392344,48.6339713 34.5526316,48.4473684 C34.3660287,48.2607656 34.2727273,47.8875598 34.2727273,47.6076555 L35.2057416,42.9425837 C35.2057416,42.7559809 35.2990431,42.569378 35.4856459,42.4760766 L46.6818182,31.2799043 C47.0550239,30.9066986 47.6148325,30.9066986 47.9880383,31.2799043 L51.7200957,35.0119617 C52.0933014,35.3851675 52.0933014,35.9449761 51.7200957,36.3181818 L40.5239234,47.5143541 C40.430622,47.6076555 40.2440191,47.7009569 40.0574163,47.7942584 L35.3923445,48.7272727 C35.2990431,48.7272727 35.2990431,48.7272727 35.2057416,48.7272727 Z" id="Combined-Shape" fill="#FFFFFF"></path>
                        </g>
                    </g>
                </g>
            </g>
        </g>
    </g>
</svg>

<svg width="78" height="88" viewBox="0 0 78 88" xmlns="http://www.w3.org/2000/svg"><g fill="none"><path d="M35.524.83c1.911-1.107 5.013-1.105 6.922 0l32.092 18.578c1.912 1.107 3.462 3.803 3.462 6.013v37.157c0 2.214-1.554 4.908-3.462 6.013l-32.092 18.578c-1.912 1.107-5.015 1.105-6.922 0l-32.064-18.578c-1.911-1.107-3.46-3.803-3.46-6.013v-37.157c0-2.214 1.552-4.908 3.46-6.013l32.064-18.578z" fill="#0070D3"/><path d="M47.509 57h-17.018c-2.482 0-4.491-2.009-4.491-4.491v-17.018c0-2.482 2.009-4.491 4.491-4.491h8.509c.709 0 1.182.473 1.182 1.182s-.473 1.182-1.182 1.182h-8.509c-1.182 0-2.127.945-2.127 2.127v16.9c0 1.182.945 2.127 2.127 2.127h16.9c1.182 0 2.127-.945 2.127-2.127v-8.391c0-.709.473-1.182 1.182-1.182s1.182.473 1.182 1.182v8.509c.118 2.482-1.891 4.491-4.373 4.491zm-12.303-8.273c-.28 0-.467-.093-.653-.28-.187-.187-.28-.56-.28-.84l.933-4.665c0-.187.093-.373.28-.467l11.196-11.196c.373-.373.933-.373 1.306 0l3.732 3.732c.373.373.373.933 0 1.306l-11.196 11.196c-.093.093-.28.187-.467.28l-4.665.933h-.187z" fill="#fff"/></g></svg>
